X: 15257
T: Girl Of The House, The
R: jig
M: 6/8
K: Dmajor
DE|:F2D G2E|A2D FED|EFA G2E|FED EDE|
~F3 GFG|AGA Bc/d/e|dcA GEA|DED D3:|
|:AB=c AGF|G3 GFG|A2B =cAG|ABc d2e|
fed =cAG|FAG FED|dcA GEA|DED D3:|

